svgs/sharp-light/toggle-large-on.svg

<svg xmlns="http://www.w3.org/2000/svg" viewBox="0 0 576 512"><!--! Font Awesome Pro 6.6.0 by @fontawesome - https://fontawesome.com License - https://fontawesome.com/license (Commercial License) Copyright 2024 Fonticons, Inc. --><path d="M544 128l-256 0 0 256 256 0 0-256zM288 416l-32 0L32 416 0 416l0-32L0 128 0 96l32 0 224 0 32 0 256 0 32 0 0 32 0 256 0 32-32 0-256 0zm-32-32l0-256L32 128l0 256 224 0zm96-192l0 128 128 0 0-128-128 0zm-32-32l32 0 128 0 32 0 0 32 0 128 0 32-32 0-128 0-32 0 0-32 0-128 0-32z"/></svg>

<svg xmlns="http://www.w3.org/2000/svg" viewBox="0 0 576 512"><!--! Font Awesome Pro 6.5.2 by @fontawesome - https://fontawesome.com License - https://fontawesome.com/license (Commercial License) Copyright 2024 Fonticons, Inc. --><path d="M544 128H288V384H544V128zM288 416H256 32 0V384 128 96H32 256h32H544h32v32V384v32H544 288zm-32-32V128H32V384H256zm96-192V320H480V192H352zm-32-32h32H480h32v32V320v32H480 352 320V320 192 160z"/></svg>
